X: 142
T: Hope thou nurse
%R: waltz, air
Z: 2017 John Chambers <jc:trillian.mit.edu>
B: John Treat - "Gamut for the Fifes", 1779, p.14 #2
F: https://archive.org/details/GamutFortheFifes
N: Addd the missing beat at the end.
M: 3/4
L: 1/4
K: D
% - - - - - - - - - - - - - - - - - - - - - - - - -
d e |\
f> g a | g f e | d2 z | e2 e |\
f2 e | f a ^g | a3 || b2 a |\
g2 f | (e/>f/g/f/) (e/d/) | (d c) z | d2 e |\
Tf> g a | g f e | d3 | z |]
% - - - - - - - - - - - - - - - - - - - - - - - - -
